!!!COM: Corelli, Arcangelo
!!!OTL: Sonate a tre [in C]
!!!XEN: Trio Sonata Opus 1, No. 7
!!!OPS: Opus 1
!!!ONM: No. 7
!!!OMV: Movement 2.
!!!YEC: Copyright 1994, Center for Computer Assisted Research in the Humanities
!!!YEM: Rights to all derivative electronic formats reserved.
!!!YEM: Refer to licensing agreement for further details.
!! For the following instrumentation: Violino I & II, Violone/Archlute,
!!    and Organo.
!! Grave.
**kern	**kern	**kern	**kern
*ICklav	*ICstr	*ICstr	*ICstr
*Iorgan	*Icello	*Ivioln	*Ivioln
*	*Iarchl	*	*
!Organo	!Violone	!Violin 2	!Violin 1
!	! or	!	!
!	!Archlute	!	!
*clefF4	*clefF4	*clefG2	*clefG2
*k[]	*k[]	*k[]	*k[]
*?:	*?:	*?:	*?:
*M4/4	*M4/4	*M4/4	*M4/4
*MM36	*MM36	*MM36	*MM36
=1-	=1-	=1-	=1-
4A\	4A\	4cc\	4ee\
4G#\	4G#\	4b\	4ee\
4.A\	4.A\	4.cc\	4.ee\
8A\	8A\	8cc\	8ff\
=2	=2	=2	=2
4G\	4G\	4b\	4ee\
4F\	4F\	4a/	4dd\
2E\	2E\	2g#/	2ee\
=3	=3	=3	=3
4c\	4c\	4ee\	4gg\
4B\	4B\	4dd\	4gg\
4A\	4A\	4cc\	4ff\
4G\	4G\	4b\	4ee\
=4	=4	=4	=4
4F\	4F\	8a/L	4dd\
.	.	8b/J	.
4E\	4E\	2cc\	4gg\
4D\	4D\	.	2ff\
4GG/	4GG/	4b\	.
=5	=5	=5	=5
2C/	2C/	4cc\	4ee\
.	.	4ee\	2ccc\
4G\	4G\	2dd\	.
4G#\	4G#\	.	[4bb\
=6	=6	=6	=6
4A\	4A\	2cc\	4bb\]
4AA/	4AA/	.	2aa\
2E\	2E\	2b\	.
.	.	.	[4gg\
=7	=7	=7	=7
2F\	2F\	4a/	4gg\]
.	.	4dd\	2ff\
4G\	4G\	8b/L	.
.	.	8g/J	.
4A\	4A\	[4cc\	4ee\
=8	=8	=8	=8
4F\	4F\	4cc\]	2dd\
4G\	4G\	[4b\	.
4E\	4E\	8b/L]	2cc\
.	.	8e/J	.
4C/	4C/	[4a/	.
=9	=9	=9	=9
4D\	4D\	4a/]	2b\
4E\	4E\	4g#/	.
4AA/	4AA/	4a/	4a/
[4A\	[4A\	4a/	4cc\
=10	=10	=10	=10
4A\]	4A\]	2b\	4dd\
4G\	4G\	.	2ee\
2F\	2F\	2a/	.
.	.	.	[4dd\
=11	=11	=11	=11
2E\	2E\	4g/	4dd\]
.	.	4gg\	2cc\
4D\	4D\	2ff\	.
4GG/	4GG/	.	4b\
=12	=12	=12	=12
4c\	4c\	4ee\	4cc\
4B\	4B\	4dd\	4r
4A\	4A\	4cc\	4ff\
4G\	4G\	4b\	4ee\
=13	=13	=13	=13
4F\	4F\	4aa\	4.dd\
4E\	4E\	4gg\	.
.	.	.	8g/
4D\	4D\	4ff\	8a/L
.	.	.	8b/J
8E\L	8E\L	4ee\	[4cc\
8F\J	8F\J	.	.
=14	=14	=14	=14
4G\	4G\	2dd\	4cc\]
4GG/	4GG/	.	4b\
2C/	2C/	2cc\	2cc\
==	==	==	==
*-	*-	*-	*-
!!!CDT: 1653/2/17/-1713/1/8
!!!OCY: Italia
!!!ODE: Queen Christina Alexandra of Sweden
!!!ODT: 1681//
!!!OPC: Roma; Rome
!!!AGN: trio sonata
!!!AST: baroque, chamber
!!!AMT: simple quadruple
!!!YOR1: J. Joachim & F. Chrysander (eds.) Les Oeuvre de Arcangelo Corelli
!!!YOR2: London: Augener & Co. 1871
!!!YOY: 1871
!!!AIN: archl cello organ violn
!!!EEV: 1.1
!!!RDT: 1993 August 31
!!!YER: 1994 December 14
!!!EMD: 1996 July 9
!!!YEN: United States of America
!!!EFL: 2/3
!!!ENC: Frances Bennion & Steven Rasmussen
!!!EED: W.B. Hewlett
!!!VTS: 2507926357
